X:11
T:Flowers of the Forest - A Reel
Z:Jack Campin, http://www.campin.me.uk
F:http://www.campin.me.uk/Music/Flodden.abc
I:last edit 28-05-2013
S:James Gillespie's fiddle MS, Perth 1768, NLS MS.808, Mf.Sec.MSS.390
M:C|
L:1/8
Q:1/2=108
K:D
 A2(AB) ABde|Tf2(ed) BdAF| A2(AB) ABde|faef d/d/d d2:|
=c2 ec  B2dB| Afed   BdAF|=c2(ec) B2dB|Afec d/d/d d2:|
 f(aa)b a2gf| gfed   BdAF| f(aa)b a2gf|geaf d/d/d d2 |
 f(aa)b a2gf| gfed   BdAF| A2 AB  ABde|faef d/d/d d2|]

% ===========================================================================
% ==  (c) Jack Campin                            http://www.campin.me.uk/  ==
% ==      11 Third Street, Newtongrange, Midlothian EH22 4PU, Scotland     ==
% ===========================================================================

